X:1
T:04 - O bella man
T:Luca Marenzio (1556 - 1599) 1º Libro di Madrigali a quattro voci (Venetia, 1592)
T:Francesco Petrarca
T:04 - O bella man
T:© 2018 Ed. Marcos Mato
T:© 2018 Ed. Marcos Mato
T:© 2018 Ed. Marcos Mato
T:© 2018 Ed. Marcos Mato
T:© 2018 Ed. Marcos Mato
T:© 2018 Ed. Marcos Mato
T:© 2018 Ed. Marcos Mato
T:© 2018 Ed. Marcos Mato
T:© 2018 Ed. Marcos Mato
T:© 2018 Ed. Marcos Mato
C:Luca Marenzio (1556 - 1599)
C:1º Libro di Madrigali a quattro voci (Venetia, 1592)
Z:Francesco Petrarca
Z:© 2018 Ed. Marcos Mato
%%score [ 1 2 3 4 ]
L:1/8
M:4/4
K:F
V:1 alto1 nm="Soprano" snm="Sop."
V:2 alto nm="Alto" snm="A."
V:3 tenor transpose=-12 nm="Tenor" snm="T."
V:4 bass nm="Basso" snm="Bajo"
V:1
 c4 | [Cd]2 |[M:4/2]"^Prima parte" z4 c4 A4 =B4 | c8 z8 | z2 c2 A3 A B2 A2 G4 | A8 z4 c4- | %6
w: ||O bel- la|man,|che mi des- trin- gi\_il co-|re, o|
 c4 A4 =B4 c4 | z4 d4 _B4 c4 | d4 z2 G2 E3 E F2 E2 | D8 E8 | z4 c4 B4 A4 | G4 F4 z2 c2 A2 F2 | %12
w: _ bel- la man,|o bel- la|man, che mi des- trin- gi\_il|co- re,|e'n po- co|spa- tio, e'n po- co|
 D3 D E2 E2 A2 D2 G4 | F4 A2 A2 =B2 B2 c3 B/A/ | G8 A8- | A8 z8 | z2 B3 B A2 c4 F4 | %17
w: spa- tio la mia vi- ta chiu-|di, la mia vi- ta chiu- * *|* di;|_|po- ser Na- tu- ra,|
 z2 A4 c2 d4 G4 | z4 z2 A2 B3 B F2 A2 | G4 F4 c8 | z2 A4 c2 d4 A4 | B3 B F2 A2 G4 F4 | %22
w: o- ve\_ogn' ar- te|e tut- ti\_i lo- ro|stu- di, man|o- ve\_ogn'- ar- te\_e|tut- ti\_i lo- ro stu- di|
 z2 c3 c B2 A4 G4 | d2 D2 EDEF G2 G2 F4 | c2 C2 DCDE F3 G A2 GF | E2 F4 E2 F8 | c4 A3 B c4 c4 | %27
w: po- ser Na- tu- ra\_e'l|Ciel per far- * * * * si\_ho- no-|re, per far- * * * * * * * *|* si\_ho- no- re;|di cin- que per- le,|
 z2 c2 A3 B c6 d2 | A2 B2 c2 d2 A2 B4 A2 | B4 z2 d2 A2 B2 c2 d2 | =B2 c4 B2 c8 | z4 C4 G8 | %32
w: di cin- que per- le\_o-|ri- en- tal co- lo- * *|re, o- ri- en- tal co-|lo- * * re,|e sol|
 z4 G4 G4 G4 | A8 A4 B4- | B4 c4 B8- | B4 A2 G2 ^F2 G4 F2 | G4 G2 A2 G4 G2 =F2 | E4 E4 z4 z2 A2 | %38
w: ne le mie|pia- gh'a- cer-|* bi\_e cru-||di, di- ti schiet- ti so-|a- vi, a|
 B4 A4 GF F4 E2 | z2 F2 A8 G4 | F4 z2 A2 c4 B4 | A8 z4 A4 | c4 B4 A2 F2 G2 F2 | _E8 D8 | z8 d4 B4 | %45
w: tem- po\_i- * * gnu- di|con- sent' hor|voi, con- sent' hor|voi, con-|sent' hor voi, a tem- po\_i-|gnu- di|con- sent'|
 c4 d4 A4 c4 | B4 A2 F2 A3 A G2 A2 | D4 A4 z2 c2 e4 | d4 c2 A2 G3 G G2 G2 | A8 G8 || %50
w: hor voi, con- sent'|hor voi, per ar- ric- chir- me,\_A-|mo- re, con- sent'|hor voi, per ar- ric- chir- me,\_A-|mo- re.|
"^Seconda parte" G6 G2 G4 c3 B | A2 c2 B2 A2 d3 c/B/ ABcA | =B2 c4 B2 c8 | z16 | z8 z4 z2 c2 | %55
w: Can- di- do leg- gia-|dret- to\_e ca- ro guan- * * * * * *|* * * to,||chi|
 A3 G A2 B2 c8 | z4 z2 c2 A3 G A2 B2 | c8 z4 A4- | A4 G8 ^F4 | G8 E8 | F2 G2 A4 F2 G4 A2 | %61
w: vi- de\_al mon- do mai,|chi vi- de\_al mon- do|mai si|_ dol- ci|spo- glie?|Co- si\_ha- vess' io del bel|
 B4 A4 z8 | z8 A2 B2 c4 | A2 B4 c2 d6 D2- | DD G4 F2 G4 z4 | z8 z4 d4- | d4 c2 B2 A3 B c2 d2 | %67
w: ve- lo,|co- si\_ha- vess'|io del bel ve- lo\_al-|* tre- tan- * to!|O|_ in- cos- tan- tia de l'hu-|
 B2 A2 G8 ^F4 | z4 d8 c4- | c2 A2 B4 A4 z2 A2 | dcBA G2 c2 A2 F4 B2- | B2 AG A4 D4 d4- | %72
w: ma- ne co- se!|Pur quest'|_ 'e fur- to, e|vien _ _ _ _ chi me ne spo|_ _ _ _ glie, o|
 d4 c2 B2 A3 B c2 d2 | B2 A2 G8 ^F4 | z4 d8 c4- | c2 A2 B4 A8 | z8 z4 z2 G2 | %77
w: _ in- cos- tan- tia de l'hu-|ma- ne co- se!|Pur quest'|_ è fur- to,|e|
 AGAB c3 B/A/ G4 G2 A2- | AGFE D2 G2 E2 c2 A3 G/F/ | G4 G2 A2 AGFE D2 G2 | E2 E2 F6 ED E4 | F16 |] %82
w: vien, _ _ _ _ _ _ _ e vien|_ _ _ _ _ chi me ne spo- * *|* glie, e vien _ _ _ _ chi|me ne spo- * * *|glie.|
V:2
 F4 | [F,A]2 |[M:4/2] F8 F4 G4 | A8 z4 z2 G2 | E3 E F2 E2 DE F4 E2 | F3 E/D/ C4 z8 | F8 D4 E4 | %7
w: ||O bel- la|man, che|mi des- trin- gi\_il co- * * *|* * * re,|o bel- la|
 F8 z8 | z2 D2 =B,3 B, C2 B,2 A,B, C2- | C2 =B,A, B,4 C8 | z4 z2 C2 _E2 D2 F3 F | %11
w: man,|che mi des- trin- gi\_il co- * *|* * * * re,|e'n po- co spa- tio|
 =E2 E2 D2 D2 C4 C4 | z4 G4 F4 E4 | D4 C2 F2 D2 E3 C F2- | F2 ED E4 C4 z4 | F8 z2 D4 F2 | %16
w: la mia vi- ta chiu- di,|e'n po- co|spa- tio la mia vi- ta chiu-|* * * * di;|man o- ve\_ogn'|
 G4 D4 _E3 E D2 D2 | F2 C2 z4 z2 F3 F =E2 | G4 C4 z2 D3 D F2 | E4 A4 z4 z2 E2 | F3 F C2 E2 D4 C4 | %21
w: ar- te\_e tut- ti\_i lo- ro|stu- di po- ser Na-|tu- ra, po- ser Na-|tu- ra e|tut- ti\_i lo- ro stu- di|
 z2 B,3 B, A,2 C4 F,4 | C4 z2 D2 F4 E4 | D4 C4 z2 D2 A2 F2 | EDEF G2 F3 E D2 E3 D | C8 C8 | %26
w: po- ser Na- tu- ra\_e'l|Ciel per fas- si\_ho-|no- re, e'l Ciel per|far- * * * * si\_ho- * * no- *|* re;|
 z2 C2 F3 G A4 F4 | z2 C2 F3 G A4 F4 | F3 F F2 F2 F4 F4 | z2 D2 A,2 B,2 C4 FG A2 | G3 F/E/ D4 E8- | %31
w: di cin- que per- le,|di cin- que per- le\_o-|ri- en- tal co- lo- re,|o- ri- en- tal co- * *|lo- * * * re,|
 E8 z4 D4 | E8 z4 E4 | E4 E4 F8 | F4 G8 F4 | E6 D2 C8 | D2 E4 F2 E4 E2 D2 | %37
w: _ e|sol ne|le mie piagh'|a- cer- bi\_e|cru- * *|di, di- ti schiet- ti so-|
 ^C4 C2 E2 F2 E2 DE F2- | F2 E2 z4 z8 | z2 A,2 C3 B, A,4 D4 | D4 z4 z4 z2 D2 | F3 F E2 F2 B,4 C4 | %42
w: a- vi, a tem- po\_i- gnu- * *|* di|con- sent' _ _ hor|voi, per|ar- ric- chir- mi,\_A- mo- re,|
 z8 z2 D2 _E2 D2 | CB, B,4 A,2 z2 D2 F4 | _E4 D2 F2 D3 D E2 D2 | A4 D4 z8 | z8 A,4 C4 | %47
w: a tem- po\_i-|gnu- * * di con- sent'|hor voi, per ar- ric- chir- mi,\_A-|mo- re,|con- sen-|
 B,4 A,2 A,2 A3 A G2 A2 | D4 A2 E2 E3 E D2 E2 | F8 E8 || z4 C6 C2 C4 | F3 E D2 F2 B,CDE FGAF | %52
w: te\_hor voi, per ar- ric- chir- mi,\_A-|mo- re, per ar- ric- chir- mi,\_A-|mo- re.|Can- di- do|leg- gia- drett' e ca- * * * * * * *|
 G2 E2 D4 E8 | z16 | z16 | z2 F2 D3 G F2 E2 F4 | z8 z2 F2 D3 G | F2 E2 F4 z4 F4- | F4 E8 D4 | %59
w: * ro guan- to,|||chi vi- de\_al mon- do mai,|chi vi- de\_al|mon- do mai si|_ dol- ci|
 D8 ^C8 | D2 E2 F4 D2 E4 F2 | G4 F4 z8 | z8 F2 G2 A4 | F2 G4 F2 F4 F4- | F2 _E4 D4 C3 B, B,2- | %65
w: spo- glie?|Co- si\_ha- vess' io del bel|ve- lo,|co- si\_ha- vess'|io del bel ve- lo\_al-|* tre- tan- * * *|
 B,2 A,G, A,4 B,8 | F4 A2 D2 F2 F2 E2 A,2 | B,2 F,2 G,4 A,8 | D8 F6 E2 | F4 G4 z2 F2 AGFE | %70
w: * * * * to!|O in- cos- tan- tia de l'hu-|ma- ne co- se!|Pur quest' è|fur- to, e vien _ _ _|
 D4 E4 F4 D2 F2- | F2 ED C4 F8 | F4 A2 D2 F2 F2 E2 A,2 | B,2 F,2 G,4 A,8 | D8 F6 E2 | F4 G4 z8 | %76
w: _ chi me ne spo-|* * * * glie,|O in- cos- tan- tia de l'hu-|ma- ne co- se!|Pur quest' è|fur- to,|
 z8 z4 z2 D2 | FEFG A3 G/F/ E4 E2 F2- | FEDC B,2 D2 C2 F,2 F4- | F2 ED E4 A,2 A2 GFED | %80
w: e|vien, _ _ _ _ _ _ _ e vien|_ _ _ _ _ chi me ne spo-|* * * * glie, e vien _ _ _|
 C2 C2 A,2 C2 C8 | C16 |] %82
w: _ chi me ne spo-|glie.|
V:3
 C4 | [D,F]2 |[M:4/2] z16 | z4 C4 A,4 =B,4 | C8 z4 C4- | C4 A,4 =B,4 C4 | z8 z4 z2 C2 | %7
w: |||O bel- la|man, o|_ bel- la man,|che|
 A,3 A, B,2 A,2 G,A, B,4 A,2 | B,3 C D4 z8 | z8 z4 C4 | B,4 A,4 G,4 F,4 | %11
w: mi des- trin- gi\_il co- * * *|* * re,|e'n|po- co spa- tio,|
 z2 C2 A,2 B,2 G,3 G, A,2 A,2 | =B,2 B,2 C6"^b" _B,A, G,3 A, | B,4 A,4 z8 | C8 z2 A,4 C2 | %15
w: e'n po- co spa- tio la mia|vi- ta chiu- * * * *|* di;|man o- ve\_ogn'|
 D4 A,4 B,3 B, F,2 A,2 | G,4 F,4 z4 z2 B,2- | B,B, A,2 C4 F,4 z2 C2- | CC B,2 A,4 G,4 z4 | %19
w: art' e tut- ti\_i lo- ro|stu- di po-|* ser Na- tu- ra, po-|* ser Na- tu- ra,|
 z4 C4 z2 A,4 C2 | D4 A,4 B,3 B, F,2 A,2 | G,4 D,4 z4 z2 F2- | FF E2 D4 C4 z4 | %23
w: man o- ve\_ogn'|art' e tut- ti\_i lo- ro|stu- di po-|* ser Na- tu- ra|
 z4 z2 A,2 B,A,B,C D2 D2 | C4 B,2 B,2 A,G,A,B, C2 B,A, | G,2 F,2 G,4 F,8 | z8 z2 C2 A,3 B, | %27
w: per far- * * * * si\_ho-|no- re, per far- * * * * * *|* si\_ho- no- re;|di cin- que|
 C4 C4 z2 C2 A,3 B, | C2 D2 A,2 B,2 C2 D2 C4 | B,4 z2 B,2 F,2 G,2 A,2 F2 | D8 C4 G,4 | C8 z4 G,4 | %32
w: per- le, di cin- que|per- le\_o- ri- en- tal co- lo-|re, o- ri- en- tal co-|lo- re, e|sol, e|
 C8 z4 C4 | C4 C4 D8 | D4 _E8 D4 | C6 B,2 A,8 | G,2 C4 F,2 C4 C2 D2 | A,4 A,8 z4 | %38
w: sol ne|le mie pia-|ghe\_a- cer- bi\_e|cru- * *|di, di- ti schiet- ti so-|a- vi,|
 z4 z2 A,2 B,2 A,2 G,4 | F,4 z2 A,2 C4 B,4 | A,2 D2 C3 A, G,2 A,2 D4 | C8 z2 D2 F3 F | %42
w: a tem- po\_i- gnu-|di con- sent' hor|voi, per ar- ric- chir- mi,\_A- mo-|re, per ar- ric-|
 E2 F2 B,4 F4 z4 | z8 z2 B,2 D4 | C4 B,4 z8 | z4 z2 D2 F3 F E2 F2 | B,4 F4 z8 | z8 A,4 C4 | %48
w: chir- mi,\_A- mo- re,|con- sent'|hor voi,|per ar- ric- chir- mi,\_A-|mo- re,|con- sen-|
 B,4 A,2 C2 C3 C D2 C2 | C8 C8 || z16 | z16 | z4 G,6 G,2 G,4 | C3 B, A,2 C2 B,2 A,2 D3 C/B,/ | %54
w: te\_hor voi per ar- ric- chir- mi,\_A-|mo- re.|||Che co- pria|net- to\_a- vo- rio\_e fres- che ro- * *|
 A,B,CA, =B,2 C4 B,2 C4 | z8 z2 C2 A,3 G, | A,2 B,2 C8 z4 | z8 C8 | C12 A,4 | B,8 A,8 | z16 | %61
w: * * * * * * * se,|chi vi- de\_al|mon- do mai|si|dol- ci|spo- glie?||
 z4 F,2 G,2 A,4 F,2 G,2- | G,2 A,2 B,4 C8 | z4 G,2 A,2 B,4 A,2 B,2- | B,2 G,2 A,2 B,4 C2 D4 | %65
w: Co- si\_ha- vess' io del|_ bel ve- lo,|co- si\_ha- vess' io del|_ bel ve- lo\_al- tre- tan-|
 C8 z4 D4- | D4 F2 B,2 C2 C2 C2 F2 | D2 D4 C2 D8 | z16 | z4 z2 G,2 F,G,A,B, C2 F,2- | %70
w: to! O|_ in- cos- tan- tia de l'hu-|ma- ne co- se!,||e vien _ _ _ _ chi|
 F,2 G,4 A,4 B,3 CDB, | C8 B,8 | D4 F2 B,2 C2 C2 C2 F2 | D2 D4 C2 D8 | z16 | z8 z4 D4- | %76
w: _ me ne spo- * * *|* glie,|O in- cos- tan- tia de l'hu-|ma- ne co- se!||Pur|
 D4 C6 A,2 B,4 | A,4 z4 z2 C2 CB,A,G, | F,4 G,4 A,4 F,4 | C4 C2 C2 FEDC B,2 B,2 | A,B, C4 A,2 G,8 | %81
w: _ quest' è fur-|to, e vien _ _ _|_ chi me ne|spo- glie, e vien _ _ _ _ chi|me _ _ ne spo-|
 F,16 |] %82
w: glie.|
V:4
 F,4 | [F,,C]2 |[M:4/2] z16 | F,8 F,4 G,4 | A,8 z8 | F,8 D,4 E,4 | F,8 z8 | %7
w: |||O bel- la|man,|o bel- la|man,|
 z2 F,2 D,3 D, _E,2 D,2 C,4 | B,,2 B,2 G,3 G, A,4 F,4 | G,8 C,8 | z16 | C,4 D,4 E,4 F,4 | %12
w: che mi des- trin- gi\_il co-|re, chi mi des- trin- gi\_il|co- re,||e'n po- co spa-|
 G,4 z2 C,2 A,,2 B,,2 C,3 C, | D,2 D,2 F,2 F,2 G,4 A,4 | z8 F,8 | z2 D,4 F,2 G,4 D,4 | %16
w: tio, e'n po- co spa- tio|la mia vi- ta chiu- di;|man|o- ve\_ogn' ar- te\_e|
 _E,3 E, B,,2 D,2 C,4 B,,4 | z2 F,3 F, =E,2 D,4 C,4 | z8 z2 B,3 B, A,2 | C4 F,8 z4 | z16 | %21
w: tut- ti\_i lo- ro stu- di|po- ser Na- tu- ra,|po- ser Na-|tu- ra,||
 z4 z2 F,3 F, E,2 D,4 | C,4 G,2 G,2 A,G,A,B, C2 C2 | B,4 A,4 z4 z2 D,2 | %24
w: po- ser Na- tu-|ra\_e'l Ciel per far _ _ _ _ si\_ho-|no- re, e'l|
 A,2 A,,2 B,,A,,B,,C, D,2 D,2 C,4- | C,8 F,,8 | z8 F,8 | F,8 F,8 | F,8 F,8 | %29
w: Ciel per far _ _ _ _ si\_ho- no-|* re;|di|cin- que|per- le|
 z2 B,2 F,2 G,2 A,4 F,4 | G,8 C,8- | C,8 z8 | z16 | z16 | z16 | z16 | z16 | z8 z2 A,2 B,2 A,2 | %38
w: o- ri- en- tal co-|lo- re,|_||||||a tem- po\_i-|
 G,4 F,4 z8 | z2 F,2 F,8 G,4 | D,2 D,2 F,3 F, E,2 F,2 B,,4 | F,2 F,2 A,4 G,4 F,4 | z8 z4 z2 D,2 | %43
w: gnu- di|con- sen- te\_hor|voi, per ar- ric- chir- mi,\_A- mo-|re, con- sen- te\_hor voi,|a|
 _E,2 D,2 C,4 B,,8 | z8 B,4 G,4 | A,4 B,4 F,4 A,4 | G,4 F,2 D,2 F,3 F, E,2 F,2 | B,,4 F,8 z4 | %48
w: tem- po\_i- gnu- do|con- sen-|te\_hor voi, con- sen-|te\_hor voi, per ar- ric- chir- mi,\_A-|mo- re,|
 z4 z2 A,,2 C,3 C, =B,,2 C,2 | F,,8 C,8 || z16 | z16 | z8 C,6 C,2 | C,4 F,3 E, D,2 F,2 B,,C,D,E, | %54
w: per ar- ric- chir- mi,\_A-|mo- re.|||Che co-|pria net- to\_a- vo- rio\_e fres- * * *|
 F,G,A,F, G,2 E,2 D,4 C,4 | z8 z4 z2 F,2 | D,3 G, F,2 E,2 F,4 z4 | z8 F,8 | C,12 D,4 | G,,8 A,,8 | %60
w: * * * * * che ro- se,|chi|vi- de\_al mon- do mai|si|dol- ci|spo- glie?|
 z16 | z4 D,2 E,2 F,4 D,2 E,2- | E,2 F,2 G,4 F,8 | z8 B,,2 C,2 D,4 | B,,2 C,4 D,2 _E,4 D,3 E, | %65
w: |Co- si\_ha- vess' io del|_ bel ve- lo,|co- si\_ha- vess'|io del bel ve- lo\_al- tre-|
 F,8 B,,4 B,4- | B,4 A,2 G,2 F,3 G, A,2 F,2 | G,2 D,2 _E,4 D,8 | z16 | z8 z2 F,2 F,E,D,C, | %70
w: tan- to! O|_ in- cos- tan- tia de l'hu-|ma- ne co- se!,||e vien _ _ _|
 B,,4 C,4 D,4 B,,4 | F,4 F,4 z4 B,4- | B,4 A,2 G,2 F,3 G, A,2 F,2 | G,2 D,2 _E,4 D,8 | z16 | %75
w: _ chi me ne|spo- glie, O|_ in- cos- tan- tia de l'hu-|ma- ne co- se!||
 z8 D,8 | F,6 E,2 F,4 G,4 | z2 F,2 F,G,A,B, C4 z4 | z16 | z2 C,2 C,B,,A,,G,, F,,4 G,,4 | %80
w: Pur|quest' è fur- to,|e vien, _ _ _ _||e vien _ _ _ _ chi|
 A,,4 F,,4 C,8 | F,,16 |] %82
w: me ne spo-|glie.|

